X:53
T:Jock O' Hazeldean
C:arr. Carlo Minasi
M:2/4
L:1/8
B:Chappell's One Hundred Scotch Melodies
B:Arranged for the Concertina by Carlo Minasi
Q:"Moderato  "1/4=120
Z:Peter Dunk 2012
K:G
!p!g|(dB) {B/}A>G|(GBD[EC])|\
([GB,]G[cA]>[BG])|([B2G2]{[cA][BG]}[AF]) g|\
(dB) (A>G)|(GBD[EC])|\
([GB,]B{B/}[AFDC]>G)|[G3D3B,3]||
B|([cGE]>Bcd) |([ec][dB][gB][ec])|\
([dB][BG]) (3[AF][BG][dB]|L[e3c3G3C3]g|\
(dB) {B/}A>G|(GB)HD "poco"[EC]|\
"rall."([GB,]B){B/}([AFDC]>G)|[G3D3B3]||

